img/svgicons/quote.svg

<svg width="47" height="40" viewBox="0 0 47 40" fill="none" xmlns="http://www.w3.org/2000/svg">
<path d="M12.9137 22.8571C15.3163 22.8571 17.2183 23.6592 18.6198 25.2632C20.1214 26.7669 20.8722 28.7719 20.8722 31.2782C20.8722 33.985 19.9712 36.1404 18.1693 37.7444C16.4675 39.2481 14.115 40 11.1118 40C7.60809 40 4.85517 38.6466 2.85304 35.9399C0.951012 33.2331 0 29.3734 0 24.3609C0 19.8496 1.00107 15.6892 3.00319 11.8797C5.00533 7.96992 8.00852 4.06015 12.0128 0.150374C12.1129 0.0501247 12.263 0 12.4633 0C12.7636 0 13.0138 0.150374 13.2141 0.451122C13.4143 0.751876 13.4143 1.0025 13.2141 1.203C8.30884 6.21553 5.85623 12.1303 5.85623 18.9474C5.85623 21.7544 6.35676 23.8095 7.35783 25.1128C8.25879 23.609 10.1108 22.8571 12.9137 22.8571ZM39.0415 22.8571C41.4441 22.8571 43.3461 23.6592 44.7476 25.2632C46.2492 26.7669 47 28.7719 47 31.2782C47 33.985 46.099 36.1404 44.2971 37.7444C42.5953 39.2481 40.2428 40 37.2396 40C33.7359 40 30.983 38.6466 28.9808 35.9399C27.0788 33.2331 26.1278 29.3734 26.1278 24.3609C26.1278 19.8496 27.1289 15.6892 29.131 11.8797C31.1331 7.96992 34.1363 4.06015 38.1406 0.150374C38.2407 0.0501247 38.3908 0 38.5911 0C38.8914 0 39.1416 0.150374 39.3419 0.451122C39.5421 0.751876 39.5421 1.0025 39.3419 1.203C34.4366 6.21553 31.984 12.1303 31.984 18.9474C31.984 21.7544 32.4846 23.8095 33.4856 25.1128C34.3866 23.609 36.2386 22.8571 39.0415 22.8571Z" fill="white"/>
</svg>

<svg width="47" height="40" fill="none" xmlns="http://www.w3.org/2000/svg"><path d="M12.914 22.857c2.402 0 4.304.802 5.706 2.406 1.501 1.504 2.252 3.509 2.252 6.015 0 2.707-.9 4.862-2.703 6.466C16.468 39.248 14.115 40 11.112 40c-3.504 0-6.257-1.353-8.259-4.06C.951 33.233 0 29.373 0 24.36c0-4.51 1.001-8.67 3.003-12.48C5.005 7.97 8.01 4.06 12.013.15c.1-.1.25-.15.45-.15.3 0 .55.15.751.451.2.3.2.551 0 .752C8.31 6.216 5.856 12.13 5.856 18.947c0 2.807.5 4.863 1.502 6.166.9-1.504 2.753-2.256 5.556-2.256Zm26.128 0c2.402 0 4.304.802 5.706 2.406C46.249 26.767 47 28.772 47 31.278c0 2.707-.901 4.862-2.703 6.466C42.595 39.248 40.243 40 37.24 40c-3.504 0-6.257-1.353-8.26-4.06-1.901-2.707-2.852-6.567-2.852-11.58 0-4.51 1-8.67 3.003-12.48 2.002-3.91 5.005-7.82 9.01-11.73.1-.1.25-.15.45-.15.3 0 .55.15.75.451.201.3.201.551 0 .752-4.904 5.013-7.357 10.927-7.357 17.744 0 2.807.5 4.863 1.502 6.166.9-1.504 2.753-2.256 5.556-2.256Z" fill="#fff"/></svg>
